icon/fa/pen-nib.svg

<svg xmlns="http://www.w3.org/2000/svg" viewBox="0 0 512 512"><!--! Font Awesome Free 6.1.2 by @fontawesome - https://fontawesome.com License - https://fontawesome.com/license/free (Icons: CC BY 4.0, Fonts: SIL OFL 1.1, Code: MIT License) Copyright 2022 Fonticons, Inc.--><path d="M368.4 18.34c21.9-21.866 57.3-21.866 79.2 0l46.1 46.06c21.8 21.87 21.8 57.3 0 79.2l-55.8 55.7L312.7 74.06l55.7-55.72zm49 205.66-46 153.3c-6 19.9-21.2 35.7-40.9 42.3L66.17 508.2c-11.34 3.8-23.85 1-32.43-7.3L187.3 347.3c6.3 3 13.3 4.7 19.8 4.7 27.4 0 48-21.5 48-48s-20.6-48-48-48c-25.6 0-48 21.5-48 48 0 7.4 2.6 14.4 5.6 20.7L11.11 478.3a32.113 32.113 0 0 1-7.345-32.5L92.39 181.5c5.71-19.7 22.41-34.9 42.31-40.9l152.4-46L417.4 224z"/></svg>

<svg xmlns="http://www.w3.org/2000/svg" viewBox="0 0 512 512" height="1em" width="1em">
<!--! Font Awesome Free 6.1.2 by @fontawesome - https://fontawesome.com License - https://fontawesome.com/license/free (Icons: CC BY 4.0, Fonts: SIL OFL 1.1, Code: MIT License) Copyright 2022 Fonticons, Inc.-->
  <path d="M368.4 18.34C390.3-3.526 425.7-3.526 447.6 18.34L493.7 64.4C515.5 86.27 515.5 121.7 493.7 143.6L437.9 199.3L312.7 74.06L368.4 18.34zM417.4 224L371.4 377.3C365.4 397.2 350.2 413 330.5 419.6L66.17 508.2C54.83 512 42.32 509.2 33.74 500.9L187.3 347.3C193.6 350.3 200.6 352 207.1 352C234.5 352 255.1 330.5 255.1 304C255.1 277.5 234.5 256 207.1 256C181.5 256 159.1 277.5 159.1 304C159.1 311.4 161.7 318.4 164.7 324.7L11.11 478.3C2.809 469.7-.04 457.2 3.765 445.8L92.39 181.5C98.1 161.8 114.8 146.6 134.7 140.6L287.1 94.6L417.4 224z"/>
</svg>
